X:400
T:Valerie and Brad
M:3/4
L:1/4
C:© Paul Gitlitz, 2015
K:A
A|:"A"AcB |A2A|"C#m"Ace |f2e|!
"F#m"eag |f2e|{(fg}f)ec| "E"B2E|!
"A"AcB |AEA|"C#m"cag |"F#m"f2e|!
"A"Aag |"F#m"f2g/a/|"E"ecB|1"A"A2E:|2"A"A2a/g/|!
|:"F#m"~f3 |fga|"A"~e3 |ega|!
ec'a |~e3|edc |"E"B2E|!
"A"AcB |AEA|"C#m"cag |"F#m"f2e|!
f2g/a/ |"A"ecA|"E"{(Bc}B)AG|1"A"A2a/g/:|2"A"A3|]
